src/icons/outline/ai/transcription.svg

<svg width="24" height="24" viewBox="0 0 24 24" fill="none" xmlns="http://www.w3.org/2000/svg">
<g clip-path="url(#clip0_1_3621)">
<path d="M9.48926 7.80176C9.90844 7.80189 10.2558 8.14497 10.2559 8.55859V22.2432C10.2558 22.6568 9.90848 22.9999 9.48926 23C9.06993 23 8.72169 22.6569 8.72168 22.2432V8.55859C8.72176 8.14489 9.06996 7.80176 9.48926 7.80176Z" fill="#1D1B20"/>
<path d="M1.7666 9.00195C2.18594 9.00195 2.53418 9.346 2.53418 9.75977V21.042C2.53411 21.4557 2.1859 21.7988 1.7666 21.7988C1.34752 21.7986 1.00007 21.4555 1 21.042V9.75977C1 9.34616 1.34748 9.00222 1.7666 9.00195Z" fill="#1D1B20"/>
<path d="M13.3447 9.81055C13.7641 9.81055 14.1123 10.1536 14.1123 10.5674V20.2354C14.112 20.6489 13.7639 20.9922 13.3447 20.9922C12.9256 20.9921 12.5784 20.6488 12.5781 20.2354V10.5674C12.5781 10.1537 12.9255 9.81068 13.3447 9.81055Z" fill="#1D1B20"/>
<path d="M5.63281 11.2529C6.05206 11.2529 6.40023 11.5961 6.40039 12.0098V18.7812C6.40039 19.195 6.05215 19.5381 5.63281 19.5381C5.21369 19.5378 4.86621 19.1949 4.86621 18.7812V12.0098C4.86637 11.5963 5.21379 11.2532 5.63281 11.2529Z" fill="#1D1B20"/>
<path d="M17.2109 12.1211C17.6302 12.1211 17.9784 12.4643 17.9785 12.8779V17.9238C17.9785 18.3376 17.6303 18.6807 17.2109 18.6807C16.7916 18.6806 16.4443 18.3376 16.4443 17.9238V12.8779C16.4444 12.4643 16.7917 12.1212 17.2109 12.1211Z" fill="#1D1B20"/>
<path fill-rule="evenodd" clip-rule="evenodd" d="M18.3467 1C18.7147 1.00013 19.0318 1.25218 19.1035 1.61523C19.4308 3.27028 20.7503 4.59308 22.3867 4.91602C22.7546 4.98679 22.9999 5.30913 23 5.66211C23 6.01522 22.7445 6.33841 22.3867 6.40918C20.7503 6.7321 19.4309 8.05405 19.1035 9.70898C19.0319 10.0621 18.7148 10.3251 18.3467 10.3252C17.9785 10.3252 17.6614 10.0723 17.5898 9.70898C17.2625 8.05407 15.9429 6.73218 14.3066 6.40918C13.9384 6.33854 13.6924 6.01532 13.6924 5.66211C13.6925 5.30901 13.9488 4.98664 14.3066 4.91602C15.943 4.59303 17.2626 3.27024 17.5898 1.61523C17.6616 1.26223 17.9786 1 18.3467 1ZM18.3359 3.80566C17.8655 4.56243 17.2314 5.19794 16.4746 5.66211C17.2212 6.12633 17.8655 6.77274 18.3359 7.51953C18.8064 6.7627 19.4507 6.12632 20.1973 5.66211C19.4406 5.19791 18.8063 4.55232 18.3359 3.80566Z" fill="#1D1B20"/>
</g>
<defs>
<clipPath id="clip0_1_3621">
<rect width="24" height="24" fill="white"/>
</clipPath>
</defs>
</svg>

<svg xmlns="http://www.w3.org/2000/svg" width="24" height="24" fill="none" viewBox="0 0 24 24"><g fill="currentColor" clip-path="url(#a)"><path d="M9.49 7.802c.418 0 .766.343.766.757v13.684a.767.767 0 0 1-1.534 0V8.56c0-.414.348-.757.767-.757M1.767 9.002c.419 0 .767.344.767.758v11.282a.768.768 0 0 1-1.534 0V9.76c0-.414.347-.758.767-.758m11.578.808c.42 0 .767.344.767.757v9.668a.768.768 0 0 1-1.534 0v-9.668c0-.413.348-.756.767-.756m-7.712 1.442c.42 0 .767.343.767.757v6.771a.768.768 0 0 1-1.534 0V12.01c0-.414.348-.757.767-.757m11.577.868c.42 0 .768.343.768.757v5.046a.768.768 0 0 1-1.534 0v-5.046c0-.414.348-.757.767-.757"/><path fill-rule="evenodd" d="M18.347 1c.368 0 .685.252.756.615.328 1.655 1.647 2.978 3.284 3.301.368.07.613.393.613.746a.77.77 0 0 1-.613.747c-1.637.323-2.956 1.645-3.283 3.3a.775.775 0 0 1-.757.616.765.765 0 0 1-.757-.616c-.328-1.655-1.647-2.977-3.283-3.3a.76.76 0 0 1-.615-.747.77.77 0 0 1 .615-.746c1.636-.323 2.956-1.646 3.283-3.3A.775.775 0 0 1 18.347 1m-.011 2.806a5.7 5.7 0 0 1-1.861 1.856 5.9 5.9 0 0 1 1.86 1.858 5.8 5.8 0 0 1 1.862-1.858 5.8 5.8 0 0 1-1.861-1.856" clip-rule="evenodd"/></g><defs><clipPath id="a"><path fill="currentColor" d="M0 0h24v24H0z"/></clipPath></defs></svg>
